X:1
T:Song of a Thousand Years
M:3/4
L:1/8
K:C
 G A/2B/2| c3 CE F| G C3 A A/2A/2| G3 cG E| D4 d d/2d/2| c3 EF G| A2 c2 A A/2A/2|\
 G3 cB d| c3 z/2 c/2 c3/2 c/2| c3 AG E| D/2C/2 C3 c/2c/2 d| e3 cG E|\
 D4 d/2d/2 d| c3 EF G| A c3 A/2A/2 A| G3 cB d| c4 z2|

